packages/components/icon/src/assets/icons/close.svg

<svg width="24" height="24" viewBox="0 0 24 24" fill="none" xmlns="http://www.w3.org/2000/svg">
<path fill-rule="evenodd" clip-rule="evenodd" d="M5.63529 7.05025C5.44003 7.24551 5.44003 7.5621 5.63529 7.75736L9.87793 12L5.63529 16.2426C5.44003 16.4379 5.44003 16.7545 5.63529 16.9497L7.04951 18.364C7.24477 18.5592 7.56135 18.5592 7.75661 18.364L11.9993 14.1213L16.2419 18.364C16.4372 18.5592 16.7537 18.5592 16.949 18.364L18.3632 16.9497C18.5585 16.7545 18.5585 16.4379 18.3632 16.2426L14.1206 12L18.3632 7.75736C18.5585 7.5621 18.5585 7.24551 18.3632 7.05025L16.949 5.63604C16.7537 5.44078 16.4372 5.44078 16.2419 5.63604L11.9993 9.87868L7.75661 5.63604C7.56135 5.44078 7.24477 5.44078 7.04951 5.63604L5.63529 7.05025Z" fill="currentColor"/>
</svg>

<svg viewBox="0 0 24 24" fill="none" xmlns="http://www.w3.org/2000/svg"><path fill-rule="evenodd" clip-rule="evenodd" d="M5.635 7.05a.5.5 0 0 0 0 .707L9.878 12l-4.243 4.243a.5.5 0 0 0 0 .707l1.415 1.414a.5.5 0 0 0 .707 0l4.242-4.243 4.243 4.243a.5.5 0 0 0 .707 0l1.414-1.414a.5.5 0 0 0 0-.707L14.121 12l4.242-4.243a.5.5 0 0 0 0-.707L16.95 5.636a.5.5 0 0 0-.707 0L12 9.879 7.758 5.636a.5.5 0 0 0-.707 0L5.635 7.05Z" fill="currentColor"/></svg>
